teeny/solid/user-plus.svg

<svg width="15" height="15" viewBox="0 0 15 15" fill="none" xmlns="http://www.w3.org/2000/svg">
<path d="M5.5 0C3.56717 0 2 1.56567 2 3.49804C2 5.43041 3.56717 6.99609 5.5 6.99609C7.43283 6.99609 9 5.43041 9 3.49804C9 1.56567 7.43283 0 5.5 0Z" fill="black"/>
<path d="M12 5V7H10V8H12V10H13V8H15V7H13V5H12Z" fill="black"/>
<path d="M7.5 8.99414L3.5 8.99414C1.56711 8.99414 0 10.5605 0 12.4936V14.9909L11 14.9909V12.4936C11 10.5605 9.43288 8.99414 7.5 8.99414Z" fill="black"/>
</svg>

<svg viewBox="0 0 15 15" xmlns="http://www.w3.org/2000/svg"><g><path d="M5.5 0C3.56 0 2 1.56 2 3.49c0 1.93 1.56 3.49 3.5 3.49 1.93 0 3.5-1.57 3.5-3.5 0-1.94-1.57-3.5-3.5-3.5Z"/><path d="M12 5v2h-2v1h2v2h1V8h2V7h-2V5h-1Z"/><path d="M7.5 8.99h-4c-1.94 0-3.5 1.56-3.5 3.49v2.49h11v-2.5c0-1.94-1.57-3.5-3.5-3.5Z"/></g></svg>
